pix_core/t/grades.svg

<svg preserveAspectRatio="xMinYMid meet" viewBox="0 0 512 512" xmlns="http://www.w3.org/2000/svg"><path d="m0 96c0-35.3 28.7-64 64-64h384c35.3 0 64 28.7 64 64v320c0 35.3-28.7 64-64 64h-384c-35.3 0-64-28.7-64-64zm64 0v64h64v-64zm384 0h-256v64h256zm-384 128v64h64v-64zm384 0h-256v64h256zm-384 128v64h64v-64zm384 0h-256v64h256z" fill="#fff"/></svg>

<svg xmlns="http://www.w3.org/2000/svg" viewBox="0 0 512 512" preserveAspectRatio="xMinYMid meet"><!--!Font Awesome Free 6.5.2 by @fontawesome - https://fontawesome.com License - https://fontawesome.com/license/free Copyright 2024 Fonticons, Inc.--><path fill="#fff" d="M0 96C0 60.7 28.7 32 64 32H448c35.3 0 64 28.7 64 64V416c0 35.3-28.7 64-64 64H64c-35.3 0-64-28.7-64-64V96zm64 0v64h64V96H64zm384 0H192v64H448V96zM64 224v64h64V224H64zm384 0H192v64H448V224zM64 352v64h64V352H64zm384 0H192v64H448V352z"/></svg>
